X:1
T:Arabesque n1
C:Claude Debussy
L:1/8
Q:1/4=120
M:4/4
K:Emaj
V:1 treble nm="Piano" snm="Pno."
V:2 treble 
V:1
(3CEA (3cef (3gdB (3GDB, | (3A,CE (3Acd (3eBG (3EB,G,- | G,2 c2 f2 c2- | c2 c2 f2 a2- | a2 a4- (3agf- | f2 (3efc (3eBc (3GBF | (3GEG D4 C2 | B,2 (3efc (3eBc (3GBF | (3GEG D4 C2 |  (3B,A,B, C2- CEDE | C2 G4 E2 | (3DCD E2- EGFG | E2 c4 (3^AcA | G2 e4 (3cec | g3 f g3 f |  g3 f g f2 g | a4 g4 | f4 e4 | d4 e2 gb | d4- dceg | B4- BAce | G4 (3z Ac (3egf | d2 G2 z FAc |  E4 (3z FA (3ce=d | G2 F4 =D2 | C8- | C2 C2 E2 C2 | F8- | F2 F2 A2 F2 |  B2 G2 B2 G2 | c8- | c2 A2 B2 c2 | c8- | c2 A2 B2 c2 | d2 e2 f2 g2 | a2 b2 c'2 d'2 | f'4 e'4 |  e8 |
V:2
(3CEA z4 (3GDB, | (3A,CE z4 (3EB,G,|[K:bass] (3F,A,C- C2 (3E,A,C- C2 | (3D,A,C- C2 (3C,A,E- E2 |  (3B,,F,A, (3C[K:treble]DF (3Acd (3cBA |[K:bass] E,,B,,E,G, B,G,E,B,, | E,,C,E,G, CG,E,C, |  E,,B,,E,G, B,G,E,B,, | E,,C,E,G, CG,E,C, | F,,C,E,F, A,F,E,C, | G,,C,E,G, B,G,E,C, |  A,,E,F,A, CA,F,E, | ^A,,E,G,C C,F,^A,E | E,^A,CG F,CE^A |[K:treble] ^A,EGc CF^Ae | ^A,EGc CF^Ae |  (3CE=A (3cef (3gdB (3GDB, | (3A,CF (3Acd (3eBG (3EB,G, | (3^^F,CD (3^ADC (3G,CE (3BEC |  (3^^F,CD (3^ADC[K:bass] (3E,=A,C (3GCA, | (3D,A,B, (3FB,A, (3C,F,A, (3EA,F, |  (3^B,,F,G, (3DG,F, (3C,F,A, (3EA,F, | (3^B,,F,G, (3DG,F, (3=B,,F,A, (3=DA,F, |  (3B,,E,G, (3=DG,E, (3B,,F,A, (3DA,F, | (3B,,E,G, (3=DG,E, (3E,,B,,E, (3F,G,B, |  (3:2:2x A,,2- A,,6- | A,,8 | =D,,A,, F,6 | B,,,B,,F,A, B,2 z2 | G,,,G,,E,G, B,2 z2 |  (3F,,,F,,C, (3E,F,A, (3CEF (3AGF | E4 D2 C2 | (3F,,,F,,C, (3E,F,A, (3CEF (3AGF | E4 F,4 |  .B,,2 .F,2 .A,2 .B,2 | .D2[K:treble] .F2 .A2 .B2 |[K:bass] E,,,E,,B,,E, G,B,EG | z4 E4 | [K:A] F6 D2 | [F,C]2 [B,,A,]6 | B,,2 F4 E2 | [A,,E,]2 [E,CE]6 | F6 =F2 |  [F,C]2 [B,,A,]4 [A,,^D,]2 | [G,,E,]2 [F,,E,]4 [B,,,B,,]2 | [E,,B,,]4 E,,2 E,2 | z2 F,,4 E,,2 |  z2 [A,,,A,,]4 [D,,D,]2 | z2 [B,,,B,,]2 [F,B,DF]2 [E,,E,]2 | [A,,,A,,]2 E,2 FEDC | z2 F,,4 E,,2 |  z2 [A,,,A,,]4 [D,,D,]2 | z2 [B,,,B,,] z !>![F,B,DF]4 | z2 [D,,D,] z !>![F,B,DF]4 | D8 | C4 A,4 |  A,,2 F4 E2 | [A,,E,]2 [E,A,CE]6 | F6 =F2 | [F,C]4 [B,,A,]2 [A,,^D,]2 |  [G,,E,]2 [F,,E,]4 [B,,,B,,]2 | [E,,B,,]4!<(! E,,2!<)! E,2 | [E,,=C,]2 [=F,,C,]4 =G,,2 |  A,,2 B,,4 A,,2 | =G,,2 =F,,2 E,,2 [D,,D,]2 | =G,,,=G,,D,=F, =G,B,D=F |[K:treble] [E=G]4 [=FA]4 |  [=G_B]4 [=FA]4 | =G8 | ^G8 ||[K:E] (3CEA (3cef (3gdB (3GDB, | (3A,CF (3Acd (3eBG (3EB,G, | [K:bass] (3F,A,C- C2 (3E,A,C- C2 | (3D,A,C- C2 (3C,A,E- E2 |  (3B,,F,A, (3CDF[K:treble] (3Ac!>(!d (3c!tenuto!B!>)!!tenuto!A |[K:bass] E,,B,,E,G, B,G,E,B,, |  E,,C,E,G, CG,E,C, | E,,B,,E,G, B,G,E,B,, | E,,C,E,G, CG,E,C, | F,,C,E,F, A,F,E,B,, |  G,,C,E,G, B,G,E,C, | A,,E,F,A, CA,F,E, | ^A,,E,G,C C,F,^A,E | E,^A,CG F,CE^A | [K:treble] ^A,EGc CF^Ae | ^A,EGc CF^Ae | (3CE=A (3cef (3gdB (3GDB, | (3A,CF (3Acd (3eBG (3EB,G, |  (3CEA (3cAE (3B,DG (3BGD | (3A,CF (3AFC (3G,B,E (3GEB, |[K:bass] (3F,A,=D (3FDA, (3E,G,C (3ECG, |  (3=D,F,B, (3=DB,F, (3C,E,A, (3CA,E, | (3B,,^E,G, (3B,G,E, (3A,,C,F, (3A,F,C, || [M:2/4] (3G,,B,,E, (3G,E,B,, ||[M:4/4] (3F,,C,E, (3F,A,B, (3CEA (3Bce |  (3abc' (3e'c'b (3aec (3BAE | (3B,,,B,,D, (3G,B,D (3GBd (3gbB | (3B,,,B,,D, (3A,B,D (3ABd (3abB |  E,,B,,E,G, B,G,E,B,, | E,,C,E,G, CG,E,D, | E,,B,,E,G, B,G,E,B,, | E,,C,E,G, CG,E,D, |  E,,2 B,,2 E,2 G,2 | E,2 B,2 E2 G2 |[K:treble] E2 B2 e2 g2 |  !tenuto![eb]2 !tenuto![eb]4 !tenuto![eb]2 |[K:bass] [E,,E,]2 z2 z4 |]
